X: 1649
T: Annie's Carafe
R: jig
M: 6/8
K: Dmajor
agf g2e|fed ecA|~d3 fed|ecA efg|
agf g2e|fed ecA|~d3 faf|1 gec dfg:|2 gec d3||
|:cde gcd|~e2d cBA|dfa afa|geg fed|
Bcd e/f/gf|efd cBA|~a3 gec|Adc d3:|

